public/img/icons/stats.svg

<?xml version="1.0" encoding="UTF-8" standalone="no"?>
<svg
   viewBox="0 -0.5 24 24"
   version="1.1"
   fill="#ffffff"
   stroke="#ffffff"
   id="svg1"
   sodipodi:docname="stats.svg"
   width="24"
   height="24"
   inkscape:version="1.3.2 (091e20e, 2023-11-25, custom)"
   xmlns:inkscape="http://www.inkscape.org/namespaces/inkscape"
   xmlns:sodipodi="http://sodipodi.sourceforge.net/DTD/sodipodi-0.dtd"
   xmlns="http://www.w3.org/2000/svg"
   xmlns:svg="http://www.w3.org/2000/svg">
  <defs
     id="defs2" />
  <sodipodi:namedview
     id="namedview1"
     pagecolor="#505050"
     bordercolor="#ffffff"
     borderopacity="1"
     inkscape:showpageshadow="0"
     inkscape:pageopacity="0"
     inkscape:pagecheckerboard="1"
     inkscape:deskcolor="#505050"
     inkscape:zoom="6.5407377"
     inkscape:cx="-2.3697633"
     inkscape:cy="27.137612"
     inkscape:window-width="1920"
     inkscape:window-height="991"
     inkscape:window-x="-9"
     inkscape:window-y="-9"
     inkscape:window-maximized="1"
     inkscape:current-layer="svg1" />
  <g
     id="SVGRepo_bgCarrier"
     stroke-width="0" />
  <g
     id="SVGRepo_tracerCarrier"
     stroke-linecap="round"
     stroke-linejoin="round" />
  <g
     id="SVGRepo_iconCarrier"
     transform="scale(1.1428571,1.2)">
    <title
       id="title1">stats [#ffffff]</title>
    <desc
       id="desc1">Created with Sketch.</desc>
    <defs
       id="defs1" />
    <g
       id="Page-1"
       stroke="none"
       stroke-width="1"
       fill="none"
       fill-rule="evenodd">
      <g
         id="Dribbble-Light-Preview"
         transform="translate(-99,-840)"
         fill="#ffffff">
        <g
           id="icons"
           transform="translate(56,160)">
          <path
             d="m 61.9,697 c 0,0.552 -0.4704,1 -1.05,1 -0.5796,0 -1.05,-0.448 -1.05,-1 v -14 c 0,-0.552 0.4704,-1 1.05,-1 0.5796,0 1.05,0.448 1.05,1 z m 0,-17 h -2.1 c -1.16025,0 -2.1,0.895 -2.1,2 v 16 c 0,1.105 0.93975,2 2.1,2 h 2.1 c 1.16025,0 2.1,-0.895 2.1,-2 v -16 c 0,-1.105 -0.93975,-2 -2.1,-2 z m -14.7,17 c 0,0.552 -0.4704,1 -1.05,1 -0.5796,0 -1.05,-0.448 -1.05,-1 v -10 c 0,-0.552 0.4704,-1 1.05,-1 0.5796,0 1.05,0.448 1.05,1 z m 0,-13 h -2.1 c -1.16025,0 -2.1,0.895 -2.1,2 v 12 c 0,1.105 0.93975,2 2.1,2 h 2.1 c 1.16025,0 2.1,-0.895 2.1,-2 v -12 c 0,-1.105 -0.93975,-2 -2.1,-2 z m 7.35,13 c 0,0.552 -0.4704,1 -1.05,1 -0.5796,0 -1.05,-0.448 -1.05,-1 v -4 c 0,-0.552 0.4704,-1 1.05,-1 0.5796,0 1.05,0.448 1.05,1 z m 0,-7 h -2.1 c -1.16025,0 -2.1,0.895 -2.1,2 v 6 c 0,1.105 0.93975,2 2.1,2 h 2.1 c 1.16025,0 2.1,-0.895 2.1,-2 v -6 c 0,-1.105 -0.93975,-2 -2.1,-2 z"
             id="stats-[#ffffff]" />
        </g>
      </g>
    </g>
  </g>
</svg>

<svg viewBox="0 -0.5 21 21" version="1.1" xmlns="http://www.w3.org/2000/svg" xmlns:xlink="http://www.w3.org/1999/xlink" fill="#ffffff" stroke="#ffffff"><g id="SVGRepo_bgCarrier" stroke-width="0"></g><g id="SVGRepo_tracerCarrier" stroke-linecap="round" stroke-linejoin="round"></g><g id="SVGRepo_iconCarrier"> <title>stats [#ffffff]</title> <desc>Created with Sketch.</desc> <defs> </defs> <g id="Page-1" stroke="none" stroke-width="1" fill="none" fill-rule="evenodd"> <g id="Dribbble-Light-Preview" transform="translate(-99.000000, -840.000000)" fill="#ffffff"> <g id="icons" transform="translate(56.000000, 160.000000)"> <path d="M61.9,697 C61.9,697.552 61.4296,698 60.85,698 C60.2704,698 59.8,697.552 59.8,697 L59.8,683 C59.8,682.448 60.2704,682 60.85,682 C61.4296,682 61.9,682.448 61.9,683 L61.9,697 Z M61.9,680 L59.8,680 C58.63975,680 57.7,680.895 57.7,682 L57.7,698 C57.7,699.105 58.63975,700 59.8,700 L61.9,700 C63.06025,700 64,699.105 64,698 L64,682 C64,680.895 63.06025,680 61.9,680 L61.9,680 Z M47.2,697 C47.2,697.552 46.7296,698 46.15,698 C45.5704,698 45.1,697.552 45.1,697 L45.1,687 C45.1,686.448 45.5704,686 46.15,686 C46.7296,686 47.2,686.448 47.2,687 L47.2,697 Z M47.2,684 L45.1,684 C43.93975,684 43,684.895 43,686 L43,698 C43,699.105 43.93975,700 45.1,700 L47.2,700 C48.36025,700 49.3,699.105 49.3,698 L49.3,686 C49.3,684.895 48.36025,684 47.2,684 L47.2,684 Z M54.55,697 C54.55,697.552 54.0796,698 53.5,698 C52.9204,698 52.45,697.552 52.45,697 L52.45,693 C52.45,692.448 52.9204,692 53.5,692 C54.0796,692 54.55,692.448 54.55,693 L54.55,697 Z M54.55,690 L52.45,690 C51.28975,690 50.35,690.895 50.35,692 L50.35,698 C50.35,699.105 51.28975,700 52.45,700 L54.55,700 C55.71025,700 56.65,699.105 56.65,698 L56.65,692 C56.65,690.895 55.71025,690 54.55,690 L54.55,690 Z" id="stats-[#ffffff]"> </path> </g> </g> </g> </g></svg>
